X:2978
L:1/16
M:2/4
K:Emin
 D2 |: B2B2 E2>F2 | GFGA BGED | B2B2 E2>F2 | GAGF E2D2 | B2B2 E2>F2 | GFGA B4 | g4 d4 |1 
 B2G2 E2>D2 :|2 B2G2 E2>f2 || a2a2 A4 | z4 z3 e/ | g2g2 G4 | z4 z3 f | a2a2 A4 | z8 | g4 d4 |1 
 B2E2 E2>f2 :|2 B2G2 E2>B2 || eeze eBAB | eeze eBAB | ddzd dBGB | ddzd dBGB | eeze eBAB | eeze e4 | 
 g4 d4 |1 B2G2 E2>B2 :|2 B2G2 E4 ||

